X: 355
P: Longways for as many as will
M: C|
L: 1/8
K: F
[|\
fga2 g2f2 | e2d2 c4 | Bcd2 c2B2 | A2G2 F4 |\
[|\
d2cB g2g2 | e2dc a4 | gab2 a2g2 | g4 f4 |]

